public/assets/logos/software/adobe-photoshop.svg

<svg fill="none" height="10" viewBox="0 0 10 10" width="10" xmlns="http://www.w3.org/2000/svg" xmlns:xlink="http://www.w3.org/1999/xlink"><clipPath id="a"><path d="m0 .124023h10v9.752h-10z"/></clipPath><g clip-path="url(#a)"><path d="m1.77083.125031h6.45834c.97916 0 1.77083.791666 1.77083 1.770829v6.20834c0 .97916-.79167 1.77083-1.77083 1.77083h-6.45834c-.979163 0-1.77083-.79167-1.77083-1.77083v-6.20834c0-.979163.791667-1.770829 1.77083-1.770829z" fill="#001e36"/><path d="m2.25 6.96252v-4.2875c0-.02917.0125-.04583.04167-.04583.07083 0 .1375 0 .23333-.00417.1-.00417.20417-.00417.31667-.00833.1125-.00417.23333-.00417.3625-.00834.12916-.00416.25416-.00416.37916-.00416.34167 0 .625.04166.85834.12916.20833.07084.4.1875.55833.34167.13333.13333.2375.29583.30417.475.0625.175.09583.35417.09583.54167 0 .35833-.08333.65416-.25.8875-.16667.23333-.4.40833-.67083.50833-.28334.10417-.59584.14167-.9375.14167-.1 0-.16667 0-.20834-.00417-.04166-.00417-.1-.00417-.17916-.00417v1.3375c.00416.02917-.01667.05417-.04584.05834h-.80833c-.03333 0-.05-.01667-.05-.05417zm.90833-3.52917v1.4c.05834.00417.1125.00834.1625.00834h.22084c.1625 0 .325-.025.47916-.075.13334-.0375.25-.11667.34167-.22084.0875-.10416.12917-.24583.12917-.42916.00416-.12917-.02917-.25834-.09584-.37084-.07083-.10833-.17083-.19166-.29166-.2375-.15417-.0625-.32084-.0875-.49167-.08333-.10833 0-.20417 0-.28333.00417-.08334-.00417-.14167 0-.17084.00416zm4.84167 1.14584c-.125-.06667-.25833-.1125-.4-.14167-.15417-.03333-.30833-.05417-.46667-.05417-.08333-.00416-.17083.00834-.25.02917-.05416.0125-.1.04167-.12916.08333-.02084.03334-.03334.075-.03334.1125s.01667.075.04167.10834c.0375.04583.0875.08333.14167.1125.09583.05.19583.09583.29583.1375.225.075.44167.17916.64167.30416.1375.0875.25.20417.32916.34584.06667.13333.1.27916.09584.42916.00416.19584-.05417.39167-.1625.55417-.11667.16667-.27917.29583-.46667.37083-.20417.0875-.45417.13334-.75417.13334-.19166 0-.37916-.01667-.56666-.05417-.14584-.025-.29167-.07083-.425-.13333-.02917-.01667-.05-.04584-.04584-.07917v-.725c0-.0125.00417-.02917.01667-.0375s.025-.00417.0375.00417c.1625.09583.33333.1625.51667.20416.15833.04167.325.0625.49166.0625.15834 0 .27084-.02083.34584-.05833.06666-.02917.1125-.1.1125-.175 0-.05833-.03334-.1125-.1-.16667-.06667-.05416-.20417-.11666-.40834-.19583-.2125-.075-.40833-.175-.59166-.3-.12917-.09167-.2375-.2125-.31667-.35417-.06667-.13333-.1-.27916-.09583-.425 0-.17916.05-.35.14166-.50416.10417-.16667.25834-.3.4375-.38334.19584-.1.44167-.14583.7375-.14583.17084 0 .34584.0125.51667.0375.125.01667.24583.05.35833.09583.01667.00417.03334.02084.04167.0375.00417.01667.00833.03334.00833.05v.67917c0 .01667-.00833.03333-.02083.04167-.0375.00833-.05833.00833-.075 0z" fill="#31a8ff"/></g></svg>

<svg width="10" height="10" viewBox="0 0 10 10" fill="none" xmlns="http://www.w3.org/2000/svg">
<g clip-path="url(#clip0_86_603)">
<path d="M1.77083 0.125031H8.22917C9.20833 0.125031 10 0.916697 10 1.89586V8.1042C10 9.08336 9.20833 9.87503 8.22917 9.87503H1.77083C0.791667 9.87503 0 9.08336 0 8.1042V1.89586C0 0.916697 0.791667 0.125031 1.77083 0.125031Z" fill="#001E36"/>
<path d="M2.25 6.96252V2.67502C2.25 2.64585 2.2625 2.62919 2.29167 2.62919C2.3625 2.62919 2.42917 2.62919 2.525 2.62502C2.625 2.62085 2.72917 2.62085 2.84167 2.61669C2.95417 2.61252 3.075 2.61252 3.20417 2.60835C3.33333 2.60419 3.45833 2.60419 3.58333 2.60419C3.925 2.60419 4.20833 2.64585 4.44167 2.73335C4.65 2.80419 4.84167 2.92085 5 3.07502C5.13333 3.20835 5.2375 3.37085 5.30417 3.55002C5.36667 3.72502 5.4 3.90419 5.4 4.09169C5.4 4.45002 5.31667 4.74585 5.15 4.97919C4.98333 5.21252 4.75 5.38752 4.47917 5.48752C4.19583 5.59169 3.88333 5.62919 3.54167 5.62919C3.44167 5.62919 3.375 5.62919 3.33333 5.62502C3.29167 5.62085 3.23333 5.62085 3.15417 5.62085V6.95835C3.15833 6.98752 3.1375 7.01252 3.10833 7.01669H2.3C2.26667 7.01669 2.25 7.00002 2.25 6.96252ZM3.15833 3.43335V4.83335C3.21667 4.83752 3.27083 4.84169 3.32083 4.84169H3.54167C3.70417 4.84169 3.86667 4.81669 4.02083 4.76669C4.15417 4.72919 4.27083 4.65002 4.3625 4.54585C4.45 4.44169 4.49167 4.30002 4.49167 4.11669C4.49583 3.98752 4.4625 3.85835 4.39583 3.74585C4.325 3.63752 4.225 3.55419 4.10417 3.50835C3.95 3.44585 3.78333 3.42085 3.6125 3.42502C3.50417 3.42502 3.40833 3.42502 3.32917 3.42919C3.24583 3.42502 3.1875 3.42919 3.15833 3.43335ZM8 4.57919C7.875 4.51252 7.74167 4.46669 7.6 4.43752C7.44583 4.40419 7.29167 4.38335 7.13333 4.38335C7.05 4.37919 6.9625 4.39169 6.88333 4.41252C6.82917 4.42502 6.78333 4.45419 6.75417 4.49585C6.73333 4.52919 6.72083 4.57085 6.72083 4.60835C6.72083 4.64585 6.7375 4.68335 6.7625 4.71669C6.8 4.76252 6.85 4.80002 6.90417 4.82919C7 4.87919 7.1 4.92502 7.2 4.96669C7.425 5.04169 7.64167 5.14585 7.84167 5.27085C7.97917 5.35835 8.09167 5.47502 8.17083 5.61669C8.2375 5.75002 8.27083 5.89585 8.26667 6.04585C8.27083 6.24169 8.2125 6.43752 8.10417 6.60002C7.9875 6.76669 7.825 6.89585 7.6375 6.97085C7.43333 7.05835 7.18333 7.10419 6.88333 7.10419C6.69167 7.10419 6.50417 7.08752 6.31667 7.05002C6.17083 7.02502 6.025 6.97919 5.89167 6.91669C5.8625 6.90002 5.84167 6.87085 5.84583 6.83752V6.11252C5.84583 6.10002 5.85 6.08335 5.8625 6.07502C5.875 6.06669 5.8875 6.07085 5.9 6.07919C6.0625 6.17502 6.23333 6.24169 6.41667 6.28335C6.575 6.32502 6.74167 6.34585 6.90833 6.34585C7.06667 6.34585 7.17917 6.32502 7.25417 6.28752C7.32083 6.25835 7.36667 6.18752 7.36667 6.11252C7.36667 6.05419 7.33333 6.00002 7.26667 5.94585C7.2 5.89169 7.0625 5.82919 6.85833 5.75002C6.64583 5.67502 6.45 5.57502 6.26667 5.45002C6.1375 5.35835 6.02917 5.23752 5.95 5.09585C5.88333 4.96252 5.85 4.81669 5.85417 4.67085C5.85417 4.49169 5.90417 4.32085 5.99583 4.16669C6.1 4.00002 6.25417 3.86669 6.43333 3.78335C6.62917 3.68335 6.875 3.63752 7.17083 3.63752C7.34167 3.63752 7.51667 3.65002 7.6875 3.67502C7.8125 3.69169 7.93333 3.72502 8.04583 3.77085C8.0625 3.77502 8.07917 3.79169 8.0875 3.80835C8.09167 3.82502 8.09583 3.84169 8.09583 3.85835V4.53752C8.09583 4.55419 8.0875 4.57085 8.075 4.57919C8.0375 4.58752 8.01667 4.58752 8 4.57919Z" fill="#31A8FF"/>
</g>
<defs>
<clipPath id="clip0_86_603">
<rect width="10" height="9.752" fill="white" transform="translate(0 0.124023)"/>
</clipPath>
</defs>
</svg>
